dist/images/icons/round-arrow-left.svg

<svg width="44" height="44" viewBox="0 0 44 44" fill="none" xmlns="http://www.w3.org/2000/svg">
<circle cx="22" cy="22" r="21" stroke="#CDCDCD" stroke-width="2"/>
<path d="M31.1667 23.4499H14.5421L20.9079 30.362C21.2413 30.7239 21.2542 31.3253 20.9367 31.7053C20.6196 32.0848 20.0921 32.1 19.7583 31.738L12.4883 23.8436C12.1737 23.4845 12 23.0077 12 22.4999C12 21.9926 12.1737 21.5152 12.5029 21.1405L19.7587 13.2622C19.92 13.0869 20.1267 13 20.3333 13C20.5533 13 20.7733 13.0988 20.9371 13.295C21.2546 13.675 21.2417 14.2758 20.9083 14.6378L14.5158 21.5499H31.1667C31.6267 21.5499 32 21.9755 32 22.4999C32 23.0243 31.6267 23.4499 31.1667 23.4499Z" fill="#CDCDCD"/>
</svg>

<svg width="44" height="44" viewBox="0 0 44 44" fill="none" xmlns="http://www.w3.org/2000/svg"><circle cx="22" cy="22" r="21" stroke="#CDCDCD" stroke-width="2"/><path d="M31.167 23.45H14.542l6.366 6.912c.333.362.346.963.029 1.343a.764.764 0 01-1.179.033l-7.27-7.894A2.03 2.03 0 0112 22.5c0-.507.174-.985.503-1.36l7.256-7.878a.778.778 0 01.574-.262c.22 0 .44.099.604.295.318.38.305.98-.029 1.343l-6.392 6.912h16.65c.46 0 .834.425.834.95 0 .524-.373.95-.833.95z" fill="#CDCDCD"/></svg>
